epam-assets/icon-sources/18/internal-logo/talk.svg

<svg width="18" height="18" viewBox="0 0 18 18" fill="none" xmlns="http://www.w3.org/2000/svg">
<g id="18/internal-logo/talk">
<path id="icon" fill-rule="evenodd" clip-rule="evenodd" d="M15.25 9.20783C15.25 9.20783 15.25 9.6245 14.8333 9.6245H13.5833V6.38477C13.5833 5.5806 13.1375 5.13477 12.3333 5.13477H5.66665V4.6245V3.79117C5.66665 3.79117 5.66665 3.3745 6.08331 3.3745H6.91665H14.8333C15.25 3.3745 15.25 3.79117 15.25 3.79117V8.3745V9.20783ZM13.5833 12.3223V10.8745H15.25C15.6667 10.8745 16.5 10.4287 16.5 9.62451V8.37451V3.37451C16.5 2.57035 15.6667 2.12451 15.25 2.12451H6.91667H5.66667C5.25 2.12451 4.41667 2.57035 4.41667 3.37451V4.62451V5.13477H2.75C1.94583 5.13477 1.5 5.5806 1.5 6.38477V12.3223C1.5 13.1264 2.15417 13.7806 2.95833 13.7806H3.16667V14.8415C3.16667 15.2555 3.40094 15.6189 3.77792 15.7901C3.91844 15.8538 4.06594 15.8851 4.21187 15.8851C4.4576 15.8851 4.69875 15.7965 4.89427 15.6255L6.54875 13.7806H12.125C12.9292 13.7806 13.5833 13.1264 13.5833 12.3223ZM12.3333 12.3223V10.8745H5.66667C5.25 10.8745 4.41667 10.4287 4.41667 9.62451V6.38476H3.16667C3.05177 6.38476 2.75 6.38476 2.75 6.80142V12.3223C2.75 12.4372 2.84344 12.5306 2.95833 12.5306H4.41667V14.3409L6.03458 12.5306H12.125C12.2399 12.5306 12.3333 12.4372 12.3333 12.3223ZM6.08331 9.6245H12.3333V6.80142C12.3333 6.38476 12.0316 6.38476 11.9167 6.38476H5.66665V9.20783C5.66665 9.20783 5.66665 9.6245 6.08331 9.6245ZM7.33333 8.37451C7.56344 8.37451 7.75 8.18795 7.75 7.95785C7.75 7.72774 7.56344 7.54118 7.33333 7.54118C7.10323 7.54118 6.91667 7.72774 6.91667 7.95785C6.91667 8.18795 7.10323 8.37451 7.33333 8.37451ZM9.41667 7.95785C9.41667 8.18795 9.2301 8.37451 9 8.37451C8.7699 8.37451 8.58333 8.18795 8.58333 7.95785C8.58333 7.72774 8.7699 7.54118 9 7.54118C9.2301 7.54118 9.41667 7.72774 9.41667 7.95785ZM10.6667 8.37451C10.8968 8.37451 11.0833 8.18795 11.0833 7.95785C11.0833 7.72774 10.8968 7.54118 10.6667 7.54118C10.4366 7.54118 10.25 7.72774 10.25 7.95785C10.25 8.18795 10.4366 8.37451 10.6667 8.37451Z" fill="#6C6F80"/>
</g>
</svg>

<svg xmlns="http://www.w3.org/2000/svg" width="18" height="18" fill="none" viewBox="0 0 18 18">
  <path fill="#6C6F80" fill-rule="evenodd" d="M15.25 9.208s0 .416-.417.416h-1.25v-3.24c0-.803-.446-1.25-1.25-1.25H5.667V3.792s0-.417.416-.417h8.75c.417 0 .417.417.417.417v5.417Zm-1.667 3.114v-1.447h1.667c.417 0 1.25-.446 1.25-1.25v-6.25c0-.805-.833-1.25-1.25-1.25H5.667c-.417 0-1.25.445-1.25 1.25v1.76H2.75c-.804 0-1.25.446-1.25 1.25v5.937a1.46 1.46 0 0 0 1.458 1.459h.209v1.06c0 .415.234.778.61.95a1.033 1.033 0 0 0 1.116-.165L6.55 13.78h5.576a1.46 1.46 0 0 0 1.458-1.459Zm-1.25 0v-1.447H5.667c-.417 0-1.25-.446-1.25-1.25v-3.24h-1.25c-.115 0-.417 0-.417.416v5.521c0 .115.093.209.208.209h1.459v1.81l1.618-1.81h6.09a.208.208 0 0 0 .208-.209Zm-6.25-2.697h6.25V6.8c0-.416-.301-.416-.416-.416h-6.25v2.823s0 .416.416.416Zm1.25-1.25a.417.417 0 1 0 0-.834.417.417 0 0 0 0 .834Zm2.084-.417a.417.417 0 1 1-.834 0 .417.417 0 0 1 .834 0Zm1.25.417a.417.417 0 1 0 0-.834.417.417 0 0 0 0 .834Z" clip-rule="evenodd"/>
</svg>
